lib/svg/heart.svg

<svg xmlns="http://www.w3.org/2000/svg" width="12" height="16" viewBox="0 0 12 16"><path fill-rule="evenodd" d="M11.2 3c-.52-.63-1.25-.95-2.2-1-.97 0-1.69.42-2.2 1-.51.58-.78.92-.8 1-.02-.08-.28-.42-.8-1-.52-.58-1.17-1-2.2-1-.95.05-1.69.38-2.2 1-.52.61-.78 1.28-.8 2 0 .52.09 1.52.67 2.67C1.25 8.82 3.01 10.61 6 13c2.98-2.39 4.77-4.17 5.34-5.33C11.91 6.51 12 5.5 12 5c-.02-.72-.28-1.39-.8-2.02V3z"/></svg>

<svg xmlns="http://www.w3.org/2000/svg" width="12" height="16" viewBox="0 0 12 16"><path fill-rule="evenodd" d="M 11.2,3 C 10.715156,2.3425609 9.95,2.05 9,2 8.03,2 7.31,2.42 6.8,3 6.29,3.58 6.02,3.92 6,4 5.98,3.92 5.72,3.58 5.2,3 4.68,2.42 4.03,2 3,2 2.05,2.05 1.31,2.38 0.8,3 0.28,3.61 0.02,4.28 0,5 0,5.52 0.09,6.52 0.67,7.67 1.25,8.82 3.01,10.61 6,13 8.98,10.61 10.77,8.83 11.34,7.67 11.91,6.51 12,5.5 12,5 11.93739,4.1572439 11.548956,3.4731774 11.2,3 Z"/></svg>
